src/assets/icons/type-swap.svg

<?xml version="1.0" encoding="UTF-8"?>
<svg width="24px" height="24px" viewBox="0 0 24 24" version="1.1" xmlns="http://www.w3.org/2000/svg" xmlns:xlink="http://www.w3.org/1999/xlink">
    <title>矩形</title>
    <g id="扩展程序" stroke="none" stroke-width="1" fill="none" fill-rule="evenodd">
        <g id="代币详情" transform="translate(-40.000000, -702.000000)" fill="#F0C002">
            <g id="编组-2备份-3" transform="translate(20.000000, 674.000000)">
                <g id="编组" transform="translate(20.000000, 28.000000)">
                    <rect id="矩形" opacity="0.200000003" x="2" y="2" width="20" height="20" rx="3"></rect>
                    <path d="M15,13 C15.5522847,13 16,13.4477153 16,14 C16,14.5522847 15.5522847,15 15,15 L11.414,14.9996797 L11.8284271,15.4142136 C12.2189514,15.8047379 12.2189514,16.4379028 11.8284271,16.8284271 C11.4379028,17.2189514 10.8047379,17.2189514 10.4142136,16.8284271 L8.29289322,14.7071068 L8.21968877,14.625449 C8.21865914,14.6241661 8.21763261,14.6228806 8.21660919,14.6215925 L8.29289322,14.7071068 C8.25342847,14.667642 8.21795187,14.6256994 8.1864634,14.5817796 C8.17226707,14.5618533 8.15842699,14.5409505 8.14537046,14.5195178 C8.1389112,14.5090786 8.13271731,14.4984683 8.1267352,14.4877715 C8.11503374,14.4667113 8.10399512,14.4452036 8.09372989,14.4232619 C8.08497258,14.4045951 8.07680529,14.3855721 8.06925531,14.3663626 C8.06288066,14.3502364 8.05681015,14.3335527 8.0511777,14.3166686 C8.04514099,14.2983389 8.03972549,14.2803548 8.03482678,14.26226 C8.02943346,14.2427148 8.02458407,14.2223635 8.020367,14.2017818 C8.01679589,14.1839059 8.01366783,14.1662152 8.0110178,14.1484669 C8.00810098,14.1294204 8.00574796,14.1096949 8.00397748,14.0898018 C8.00188502,14.0658831 8.0006228,14.0424569 8.00017973,14.0190181 C8.00006128,14.0129086 8,14.0064615 8,14 L8.00017973,13.9809819 C8.00062118,13.9576287 8.00187582,13.9342879 8.00394365,13.9110058 L8,14 C8,13.9496322 8.00372376,13.9001341 8.010911,13.8517661 C8.01364052,13.8338738 8.01689011,13.8155215 8.02065418,13.797254 C8.02471645,13.7771743 8.02926282,13.7580788 8.03434781,13.7392043 C8.03927656,13.7211392 8.04489462,13.7024024 8.05107328,13.683811 C8.05681015,13.6664473 8.06288066,13.6497636 8.06937575,13.6332937 C8.07691653,13.6141449 8.08521338,13.5948444 8.09414586,13.5757679 C8.10284934,13.5572989 8.11205943,13.5391439 8.12179647,13.5213178 C8.12981337,13.5064512 8.13863517,13.4912297 8.14789148,13.4762 C8.16150681,13.4543017 8.17541687,13.4335467 8.19006311,13.4133605 C8.19730861,13.4032476 8.20502441,13.393032 8.21296211,13.3829339 C8.26261015,13.3197598 8.31985061,13.2625263 8.38324992,13.212786 L8.29289322,13.2928932 C8.33036927,13.2554172 8.3700798,13.2215374 8.41159595,13.191254 C8.43213745,13.1763821 8.45304828,13.1623191 8.47449845,13.1490446 C8.48919874,13.1398388 8.50444911,13.1309524 8.51987512,13.122503 C8.54158785,13.1106743 8.56395909,13.0994684 8.58678907,13.0890956 C8.59582357,13.0849721 8.60478735,13.0810682 8.61379505,13.0773018 C8.63908006,13.0667085 8.66491517,13.0571136 8.69122834,13.04858 C8.7051862,13.0441173 8.71956076,13.0398162 8.73400703,13.0358451 C8.75427934,13.0301869 8.77465211,13.0252656 8.79525737,13.0209784 C8.81689622,13.0165625 8.83867864,13.0127764 8.86054296,13.0097143 C8.87627337,13.0074444 8.89256932,13.0055673 8.90897962,13.0040867 C8.92904545,13.0023177 8.94838812,13.0011379 8.96774538,13.0005171 C8.97778921,13.0001817 8.98887338,13 9,13 L15,13 Z M13.5857864,7.17157288 L15.7071068,9.29289322 C15.735544,9.32133048 15.7622766,9.3514725 15.7871379,9.38315283 L15.7071068,9.29289322 C15.7451777,9.33096413 15.7795372,9.37134102 15.8101853,9.41357427 C15.8245831,9.43354668 15.8384932,9.45430169 15.8516276,9.47558617 C15.8613648,9.4912297 15.8701866,9.50645123 15.8785739,9.52184659 C15.8879406,9.53914385 15.8971507,9.55729895 15.9058129,9.57576218 C15.9147866,9.59484443 15.9230835,9.61414488 15.9307447,9.63363737 C15.9371193,9.64976355 15.9431898,9.66644729 15.9488223,9.68333139 C15.9551054,9.70240239 15.9607234,9.72113917 15.9657809,9.73999502 C15.9707372,9.75807884 15.9752836,9.77717425 15.9792738,9.79647306 C15.9831099,9.81552146 15.9863595,9.8338738 15.9890946,9.85228782 C15.9921867,9.87261252 15.994641,9.89366888 15.9964311,9.91491432 C15.9978699,9.93229772 15.9988882,9.94962878 15.9994578,9.96697183 C15.9998183,9.97778921 16,9.98887338 16,10 L15.9994578,10.0330282 C15.9988858,10.0504453 15.9978612,10.0678504 15.996384,10.0852242 L16,10 C16,10.0506203 15.9962388,10.1003621 15.9889807,10.1489612 C15.9863322,10.1662152 15.9832041,10.1839059 15.979598,10.2015183 C15.9754159,10.2223635 15.9705665,10.2427148 15.965106,10.2628145 C15.9602745,10.2803548 15.954859,10.2983389 15.9489267,10.316189 C15.9431898,10.3335527 15.9371193,10.3502364 15.9306242,10.3667063 C15.9231947,10.3855721 15.9150274,10.4045951 15.9062428,10.423401 C15.8960049,10.4452036 15.8849663,10.4667113 15.8731893,10.4877497 C15.8672827,10.4984683 15.8610888,10.5090786 15.8546831,10.5195962 C15.841573,10.5409505 15.8277329,10.5618533 15.8131491,10.5821867 C15.8039771,10.5951131 15.79405,10.6082645 15.7837553,10.6212195 C15.7345225,10.6830986 15.6785636,10.7387178 15.6167501,10.787214 L15.7071068,10.7071068 C15.6717127,10.7425008 15.6343256,10.774687 15.5953066,10.8036654 C15.5711307,10.8215099 15.546275,10.8382813 15.5206602,10.8539326 C15.5086131,10.8613931 15.4963944,10.8685012 15.4840621,10.8753288 C15.4636623,10.8865564 15.4426011,10.8972813 15.4211262,10.9072662 C15.407988,10.9133999 15.3946705,10.9192276 15.3812573,10.9247512 C15.3552656,10.9354778 15.3287989,10.945115 15.3018382,10.9536405 C15.2926927,10.956464 15.2833441,10.9592659 15.2739641,10.9619281 C15.2498791,10.9688508 15.2255023,10.9747984 15.2007941,10.9798348 C15.1833753,10.9832978 15.165949,10.9863719 15.1484669,10.9889822 C15.1281144,10.9920941 15.1070574,10.994564 15.085811,10.9963697 C15.0679231,10.997855 15.050591,10.9988772 15.0332468,10.9994506 C15.0224019,10.9998151 15.0112225,11 15,11 L9,11 C8.44771525,11 8,10.5522847 8,10 C8,9.44771525 8.44771525,9 9,9 L12.585,8.99967966 L12.1715729,8.58578644 C11.7810486,8.19526215 11.7810486,7.56209717 12.1715729,7.17157288 C12.5620972,6.78104858 13.1952621,6.78104858 13.5857864,7.17157288 Z" id="形状结合"></path>
                </g>
            </g>
        </g>
    </g>
</svg>

<svg width="24" height="24" xmlns="http://www.w3.org/2000/svg"><g fill="#f0c002" fill-rule="evenodd"><rect opacity=".2" x="2" y="2" width="20" height="20" rx="3"/><path d="M15 13a1 1 0 0 1 0 2h-3.586l.414.414a1 1 0 1 1-1.414 1.414l-2.121-2.12-.073-.083a1.003 1.003 0 0 1-.003-.003l.076.085A1.007 1.007 0 0 1 8 14v-.019c0-.023.002-.047.004-.07L8 14a1.008 1.008 0 0 1 .213-.617c.05-.063.107-.12.17-.17l-.09.08A1.008 1.008 0 0 1 9 13h6zm-1.414-5.828 2.121 2.12c.029.03.055.06.08.091l-.08-.09A1.007 1.007 0 0 1 16 10v.033l-.004.052L16 10a1.008 1.008 0 0 1-.216.621 1.01 1.01 0 0 1-.167.166l.09-.08a1.008 1.008 0 0 1-.674.292L15 11H9a1 1 0 0 1 0-2h3.585l-.413-.414a1 1 0 0 1 1.414-1.414z"/></g></svg>
